X:5500
T:Reel of the 51st Division
O:England
M:2/4
L:1/8
Q:1/4=110
K:G
V:1
e2  |:"Am" A/A/z/B/ ee/f/ |e/d/B/d/ eg |"G" G/G/z/B/ d3/2 e/|
d/B/G/ B/de |"Am" A/A/z/B/ ee/f/ |e/d/B/d/ ea |"G" ga e/f/e/d/ |
"Am" BA Ae :| |:"Am" a3/2 a/ea |e/d/e/f/ ga |"G" G/G/z/B/ d3/2 e/|
d/B/G/ B/de |"Am" a3/2 a/ea |e/d/e/f/ ga |"G" ga e/f/e/d/ |
"Am" BA Ae :|


